X: 3323
T: Princess Augusta
%R: air, strathspey
N: This is version 1, for ABC software that doesn't understand crescendo symbols.
B: Niel Gow & Sons "A Third Collection of Strathspey Reels, etc." v.3 p.32 #3 (and top 2 staffs of p.33)
Z: 2022 John Chambers <jc:trillian.mit.edu>
M: 2/4
L: 1/16
K: D
% - - - - - - - - - -
V: 1 staves=2
!p!dB !segno!|\
A2D2 (FGA)F | {F}A2D2D2Tc2 | d>AB>F G>EF>D | TB,3C/D/ A,2dB |\
A2D2 (FGA)F | {F}A2D2 D2dB | !f!A2F2TE3F | [D4A,4] [D2A,2] :: B2 |
!f![A3D3]B [d3F3]e | (fe)df (eg)Tfe | !p!(fe)Td>B (AF)TED | {DE}F2B,2B,2B2 |\
!f![A3D3]B [d3F3]e | (fe).d.f (eg)Tfe | fdTcB ABcA |1 {c}[d4A4F4] ~[d2A2F2] :|2 "_cresc"d4 edcB!segno!y|]
% - - - - - - - - - -
% Voice 2 preserves the staff layout in the book.
V: 2 clef=bass middle=d
!p!z2 !segno!|\
D2d2 d2d2 | d4 f2a2 | f2d2 e2f2 | [g4d4] [f4d4] |\
d4 d4 | DdAF D2g2 | !f!f2d2a2A2 | d2A2 D2 :: z2 |
!f!D2d2 D2d2 | d2d2 c2A2 | !p!d3g f2d2 | d2[d2g2][d2g2][d2g2] |\
!f![g2d4]g2 [f2d4]e2 | d2d2 A2a2 | f2g2 a2A2 |1 dd'af d2 :|2 "_cresc."dAFA D4!segno!y|]
